src/assets/icons/letters,fancy,serif-w.svg

<svg width="48" height="48" viewBox="0 0 48 48" fill="none" xmlns="http://www.w3.org/2000/svg">
<g clip-path="url(#clip0_86:477)">
<path d="M34.4013 29.628L39.5313 14.96C40.1393 13.2627 40.4433 11.996 40.4433 11.16C40.4433 10.3747 40.1646 9.868 39.6073 9.64C39.0753 9.38667 38.2393 9.26 37.0993 9.26V7.74H47.8913V9.26C46.9287 9.26 46.0546 9.50067 45.2693 9.982C44.5093 10.438 43.9266 11.2233 43.5213 12.338L34.3633 37.38H30.9813L24.3693 17.316L16.8453 37.38H13.6913L5.63531 15.188C5.15398 13.896 4.71065 12.8573 4.30531 12.072C3.89998 11.2867 3.46931 10.6913 3.01331 10.286C2.55731 9.88067 2.06331 9.61467 1.53131 9.488C0.999313 9.36133 0.365979 9.298 -0.368688 9.298V7.74H13.9953V9.298C12.7033 9.298 11.8166 9.42467 11.3353 9.678C10.854 9.906 10.6133 10.2987 10.6133 10.856C10.6133 11.0587 10.626 11.2613 10.6513 11.464C10.6766 11.6413 10.7273 11.8567 10.8033 12.11C10.8793 12.338 10.968 12.6293 11.0693 12.984C11.196 13.3387 11.3606 13.782 11.5633 14.314L16.8833 29.628L23.0393 12.832C22.786 12.148 22.5326 11.5907 22.2793 11.16C22.026 10.7293 21.722 10.3873 21.3673 10.134C21.038 9.88067 20.658 9.70333 20.2273 9.602C19.7966 9.47533 19.2773 9.374 18.6693 9.298V7.74H32.0833V9.298C31.0193 9.298 30.234 9.43733 29.7273 9.716C29.2206 9.96933 28.9673 10.476 28.9673 11.236C28.9673 11.616 29.018 12.0593 29.1193 12.566C29.246 13.0727 29.4106 13.6553 29.6133 14.314L34.4013 29.628Z" fill="black"/>
</g>
<defs>
<clipPath id="clip0_86:477">
<rect width="48" height="48" fill="white"/>
</clipPath>
</defs>
</svg>

<svg xmlns="http://www.w3.org/2000/svg" width="48" height="48" fill="none" viewBox="0 0 48 48">
  <g clip-path="url(#clip0_86:477)">
    <path fill="#000" d="M34.401 29.628l5.13-14.668c.608-1.697.912-2.964.912-3.8 0-.785-.278-1.292-.836-1.52-.532-.253-1.368-.38-2.508-.38V7.74h10.792v1.52c-.962 0-1.836.24-2.622.722-.76.456-1.342 1.241-1.748 2.356L34.363 37.38h-3.382L24.37 17.316 16.845 37.38h-3.154L5.635 15.188c-.481-1.292-.924-2.33-1.33-3.116-.405-.785-.836-1.38-1.292-1.786-.456-.405-.95-.671-1.482-.798s-1.165-.19-1.9-.19V7.74h14.364v1.558c-1.292 0-2.178.127-2.66.38-.481.228-.722.62-.722 1.178 0 .203.013.405.038.608.026.177.076.393.152.646.076.228.165.52.266.874.127.355.292.798.494 1.33l5.32 15.314 6.156-16.796c-.253-.684-.506-1.241-.76-1.672a3.276 3.276 0 00-.912-1.026c-.329-.253-.709-.43-1.14-.532a9.992 9.992 0 00-1.558-.304V7.74h13.414v1.558c-1.064 0-1.849.14-2.356.418-.506.253-.76.76-.76 1.52 0 .38.051.823.152 1.33.127.507.292 1.09.494 1.748l4.788 15.314z"/>
  </g>
  <defs>
    <clipPath id="clip0_86:477">
      <path fill="#fff" d="M0 0h48v48H0z"/>
    </clipPath>
  </defs>
</svg>
